!!!COA:	Josquin des Prez
!!!CDT:	~1450-1521/08/27
!!!OPR:	Missa Une mousse de Biscaye
!!!ONM:	1
!!!ONM2:	5
!!!OTL:	Kyrie
!!!OTL2:	Agnus Dei
!!!AGN:	Mass; Kyrie; Agnus Dei
!!!SCT:	NJE 5.2
!!!SCA:	New Josquin Edition 5.2
!!!voices:	4
!!!voices-OPR:	4
**kern	**kern	**kern	**kern
*staff4	*staff3	*staff2	*staff1
*Ivox	*Ivox	*Ivox	*Ivox
*I"Bassus	*I"Tenor	*I"Altus	*I"Superius
*I'B	*I'T	*I'A	*I'S
*>[A,B,C]	*>[A,B,C]	*>[A,B,C]	*>[A,B,C]
*>A	*>A	*>A	*>A
*clefF4	*clefGv2	*clefGv2	*clefG2
*k[b-]	*k[b-]	*k[b-]	*k[b-]
*M3/1	*M3/1	*M3/1	*M3/1
*met(O)	*met(O)	*met(O)	*met(O)
!!section: Kyrie I / Agnus Dei I
!!!OMD: Kyrie I / Agnus Dei I
=1-	=1-	=1-	=1-
0.r	0.r	1.F	0.r
.	.	2G/	.
.	.	[1A	.
=2	=2	=2	=2
0.r	0.r	2A/]	1.f
.	.	1B-	.
.	.	4A/	2g/
.	.	4G/	.
.	.	1F	1a
=3	=3	=3	=3
0.r	0.r	1G	2g/
.	.	.	1b-
.	.	1r	.
.	.	.	4a/
.	.	.	4g/
.	.	1A	1f
=4	=4	=4	=4
0.r	0.r	2B-\	1g
.	.	1c	.
.	.	.	2r
.	.	4B-\	1a
.	.	4A/	.
.	.	2B-\	.
.	.	2c\	4g/
.	.	.	4f/
=5	=5	=5	=5
0.r	0.r	2F/	2a/
.	.	1B-	1g
.	.	2A/	1f
.	.	1G	.
.	.	.	2e/
=6	=6	=6	=6
0.r	1.F	2F/	2f/
.	.	1f	1a
.	2G/	4e\	2b-\
.	.	4d\	.
.	1A	1c	1cc
=7	=7	=7	=7
1.BB-	0B-	0d	0f
2C/	.	.	.
1D	1A	1d	1f
=8	=8	=8	=8
2E-i\	2G/	2B-\	2g/
2C/	1A	2c\	2e/
2D\	.	2A/	2f/
2BB-/	1G	2B-\	2g/
1AA	.	1c	1a
.	2F/	.	.
=9	=9	=9	=9
2GG/	2G/	2B-\	2b-\
2D\	2F/	2f\	1a
1E-i	1G	2B-\	.
.	.	2c\	1g
1D	1A	1d	.
.	.	.	2f#i/
=10	=10	=10	=10
0E-i	0G	0B-	1g
.	.	.	1r
1E-i	1r	1c	1g
=11	=11	=11	=11
0D	0A	2d\	1.f
.	.	2.D/	.
.	.	4E/	.
.	.	1F	4e/
.	.	.	4d/
1C	1A	.	1e
.	.	2E/	.
=12	=12	=12	=12
1BB-	0B-	2F/	2d/
.	.	1B-	2.g/
1E-i	.	.	.
.	.	.	4f/
.	.	4A/	2g/
.	.	4G/	.
2C/	1A	2A/	2e/
2D\	.	2F/	2f/
=13	=13	=13	=13
2BB-/	2G/	2B-\	2g/
1AA	1A	2c\	1c
.	.	2A/	.
2D\	4G/	2B-\	1f
.	4F/	.	.
1C	1G	1c	.
.	.	.	2e/
=14	=14	=14	=14
2D\	2.F/	1A	2f/
2.F\	.	.	2.a/
.	4G/	.	.
.	2A/	1F	.
4E\	.	.	4g/
2D\	2B-\	.	2f/
1C	2.c\	1G	1e
.	4B-\	.	.
=15	=15	=15	=15
2D\	2A/	2F/	2f/
2.E-i\	1G	2.c\	2.g/
4D\	.	4B-\	4f/
2BB-/	1F	1B-	2d/
1C	.	.	1e
.	2E/	2A/	.
=16	=16	=16	=16
0.BB-l	0.Fl	0.B-l	0.dl
!!LO:LB:i:g=z
=17||	=17||	=17||	=17||
*>B	*>B	*>B	*>B
*clefF4	*clefGv2	*clefGv2	*clefG2
*k[b-]	*k[b-]	*k[b-]	*k[b-]
*M2/1	*M2/1	*M2/1	*M2/1
*met(C|)	*met(C|)	*met(C|)	*met(C|)
!!section: Christe / Agnus Dei II
!!!OMD: Christe / Agnus Dei II
0r	1.F	0r	0r
.	4G/	.	.
.	4A/	.	.
=18	=18	=18	=18
0r	1B-	0r	1.f
.	1A	.	.
.	.	.	4g/
.	.	.	4a/
=19	=19	=19	=19
0r	4G/	0r	1.b-
.	4A/	.	.
.	4B-\	.	.
.	4c\	.	.
.	2d\	.	.
.	[2c\	.	[2a/
=20	=20	=20	=20
0r	2c\]	0r	2a/]
.	4B-\	.	4g/
.	4A/	.	4f/
.	2G/	.	2b-\
.	2F/	.	[2a/
=21	=21	=21	=21
0r	1G	0r	2a/]
.	.	.	1g
.	1A	.	.
.	.	.	2f#i/
=22	=22	=22	=22
0r	1G	1.B-	0g
.	1r	.	.
.	.	4c\	.
.	.	4d\	.
=23	=23	=23	=23
1.C	0r	1.e-i	0r
4D\	.	4d\	.
4E\	.	4c\	.
=24	=24	=24	=24
0F	0r	2d\	0r
.	.	1c	.
.	.	4B-\	.
.	.	4A/	.
=25	=25	=25	=25
1E	0r	1G	0r
2D\	.	2F/	.
[2E\	.	[2G/	.
=26	=26	=26	=26
2E\]	0r	2G/]	0r
1D	.	2F/	.
.	.	1E	.
2C#i/	.	.	.
=27	=27	=27	=27
2.D\	0r	4D/	0r
.	.	4E/	.
.	.	4F/	.
4E\	.	4G/	.
1F	.	4A/	.
.	.	4B-\	.
.	.	4c\	.
.	.	4d\	.
=28	=28	=28	=28
2G\	0r	4.e\	0r
.	.	8d\	.
2A\	.	2.f\	.
1D	.	.	.
.	.	4e\	.
.	.	[2d\	.
=29	=29	=29	=29
1E	0r	2d\]	0r
.	.	2c#i\	.
1D	.	1d	.
=30	=30	=30	=30
0r	2r	0r	0a
.	2.F/	.	.
.	4G/	.	.
.	4A/	.	.
.	4B-\	.	.
=31	=31	=31	=31
0r	2G/	0r	1.b-
.	1d	.	.
.	4c\	.	4a/
.	4B-\	.	4g/
=32	=32	=32	=32
0r	1d	0r	2b-\
.	.	.	2a/
.	1e-i	.	2g/
.	.	.	[2b-\
=33	=33	=33	=33
0r	1d	0r	2b-\]
.	.	.	4a/
.	.	.	4g/
.	2c\	.	2a/
.	[2B-\	.	2g/
=34	=34	=34	=34
0r	2B-\]	0r	1b-
.	4A/	.	.
.	4G/	.	.
.	2F/	.	2a/
.	[2B-\	.	[2g/
=35	=35	=35	=35
1r	2B-\]	0r	2g/]
.	2A/	.	1f
1C	1G	.	.
.	.	.	2e/
=36	=36	=36	=36
2D\	0F	0A	1f
2.F\	.	.	.
.	.	.	1r
4E\	.	.	.
4D\	.	.	.
4C/	.	.	.
=37	=37	=37	=37
2BB-/	0r	1.B-	0r
1D	.	.	.
4C/	.	4A/	.
4BB-/	.	4G/	.
=38	=38	=38	=38
2D\	0r	1B-	0r
2E-i\	.	.	.
2C/	.	1A	.
2D\	.	.	.
=39	=39	=39	=39
2E-i\	0r	2G/	0r
1D	.	1B-	.
4C/	.	4A/	.
4BB-/	.	4G/	.
=40	=40	=40	=40
2.D\	0r	2.F/	0r
4E\	.	4G/	.
1F	.	4A/	.
.	.	4B-\	.
.	.	[2c\	.
=41	=41	=41	=41
2E-i\	0r	2c\]	0r
2D\	.	1B-	.
1C	.	.	.
.	.	2A/	.
=42	=42	=42	=42
2BB-/	1D	1B-	1f
1D	.	.	.
.	1E	1r	1g
2C/	.	.	.
=43	=43	=43	=43
1D	2D/	0r	2.f/
.	1d	.	.
.	.	.	4g/
1r	.	.	4a/
.	.	.	4b-\
.	4c\	.	[2cc\
.	4B-\	.	.
=44	=44	=44	=44
2r	2A/	2r	2cc\]
2G\	2B-\	2e\	1b-
1F	1c	1f	.
.	.	.	2a/
=45	=45	=45	=45
1.G	1.B-	1.d	1b-
.	.	.	2r
4F\	2c\	2e\	[2b-\
4E\	.	.	.
=46	=46	=46	=46
1D	1d	1f	4b-\]
.	.	.	4a/
.	.	.	2b-\
1C	1e-i	1g	1cc
=47	=47	=47	=47
2GG/	1d	2.g\	1b-
1G	.	.	.
.	.	4f\	.
.	2B-\	2d\	2g/
2C/	2c\	2e\	[2a/
=48	=48	=48	=48
2F\	1d	2A/	2a/]
2D\	.	2d\	4g/
.	.	.	4f/
2E\	2B-\	2G/	2g/
2C/	2c\	2c\	[2a/
=49	=49	=49	=49
1D	1F	2A/	4a/]
.	.	.	4g/
.	.	2B-\	1f
1C	1G	1c	.
.	.	.	2e/
=50	=50	=50	=50
1.D	[0F	0A	1.f
4C/	.	.	4e/
4BB-/	.	.	4d/
=51	=51	=51	=51
2AA/	1F]	2A/	2c/
1BB-	.	2.F/	1d
.	1F	.	.
.	.	4G/	.
2AA/	.	2A/	2c/
=52	=52	=52	=52
1GG	1.B-	2B-\	2d/
.	.	2.G/	1g
1D	.	.	.
.	.	4A/	.
.	4A/	4B-\	4f/
.	4G/	4c\	4e/
=53	=53	=53	=53
2GG/	2B-\	1d	2g/
2D\	2A/	.	2f/
1E-i	1G	1c	1g
=54	=54	=54	=54
0Dl	0Al	0dl	0fl
!!LO:LB:i:g=z
=55||	=55||	=55||	=55||
*>C	*>C	*>C	*>C
*clefF4	*clefGv2	*clefGv2	*clefG2
*k[b-]	*k[b-]	*k[b-]	*k[b-]
*M2/1	*M2/1	*M2/1	*M2/1
*met(C|)	*met(C|)	*met(C|)	*met(C|)
!!section: Kyrie II / Agnus Dei III
!!!OMD: Kyrie II / Agnus Dei III
0r	0r	1d	1f
.	.	2B-\	1g
.	.	2c\	.
=56	=56	=56	=56
0r	0r	2d\	2.f/
.	.	2.f\	.
.	.	.	4g/
.	.	.	2a/
.	.	4e\	.
.	.	2d\	[2b-\
=57	=57	=57	=57
1AA	1F	1c	2b-\]
.	.	.	2a/
1GG	1G	1B-	1b-
=58	=58	=58	=58
1D	2.F/	2A/	0r
.	.	4G/	.
.	4G/	4F/	.
2C/	2A/	2E/	.
2BB-/	[2B-\	[2F/	.
=59	=59	=59	=59
1C	2B-\]	2F/]	1r
.	2A/	2E/	.
2BB-/	1B-	2F/	[1dd
[2GG/	.	[2B-\	.
=60	=60	=60	=60
4GG/]	1G	2B-\]	2dd\]
4AA/	.	.	.
4BB-/	.	4A/	1b-
4C/	.	4G/	.
2D\	1r	2B-\	.
2E\	.	2c\	4a/
.	.	.	4g/
=61	=61	=61	=61
2D\	0B-	2d\	2f/
2.E\	.	2B-\	2.g/
.	.	1G	.
4D\	.	.	4f/
2E\	.	.	2g/
=62	=62	=62	=62
2.C/	1c	1A	2.e/
4D\	.	.	4f/
2E\	2B-\	2G/	2g/
[2F\	[2A/	[2d\	[2a/
=63	=63	=63	=63
4F\]	2A/]	4d\]	4a/]
4E\	.	4c\	4g/
2C/	1G	1c	2e/
1D	.	.	1f
.	2F/	2Bni\	.
=64	=64	=64	=64
1C	2G/	1c	1e
.	2A/	.	.
2BB-/	2B-\	2d\	2d/
2AA/	2c\	2c\	2e/
=65	=65	=65	=65
2D\	2d\	2B-\	2f/
2E\	2G/	2c\	1g
1D	1A	1d	.
.	.	.	2f#i/
=66	=66	=66	=66
2r	0G	1B-	1g
1E	.	.	.
.	.	2.G/	2r
4D\	.	.	[2b-\
4C/	.	4A/	.
=67	=67	=67	=67
1G	0r	2B-\	2b-\]
.	.	2.d\	4a/
.	.	.	4g/
2F\	.	.	2a/
.	.	4c\	.
2G\	.	2B-\	2b-\
=68	=68	=68	=68
1.F	[0A	2A/	1.cc
.	.	2.c\	.
.	.	4B-\	.
2E\	.	4A/	[2f/
.	.	4G/	.
=69	=69	=69	=69
1D	0A]	1F	2f/]
.	.	.	4e/
.	.	.	4d/
1C	.	1c	1e
=70	=70	=70	=70
1.BB-	0B-	2d\	1.d
.	.	1B-	.
2C/	.	4A/	2e/
.	.	4G/	.
=71	=71	=71	=71
1D	1A	2F/	1f
.	.	1d	.
1E-i	1G	.	1g
.	.	2c\	.
=72	=72	=72	=72
1.D	1A	0d	1.f
.	1B-	.	.
2E\	.	.	2g/
=73	=73	=73	=73
1F	1A	1c	1a
2G\	1G	1B-	2b-\
2E\	.	.	2g/
=74	=74	=74	=74
2.F\	2.F/	1A	1a
4E\	4G/	.	.
4D\	2A/	1d	2f/
4C/	.	.	.
[2BB-/	[2B-\	.	[2g/
=75	=75	=75	=75
4BB-/]	4B-\]	1B-	2g/]
4C/	4A/	.	.
2D\	2F/	.	1f
1C	1G	1c	.
.	.	.	2e/
=76	=76	=76	=76
1.D	0F	2A/	1f
.	.	1d	.
.	.	.	[1a
2E\	.	4c\	.
.	.	4B-\	.
=77	=77	=77	=77
[0F	1r	1.A	2a/]
.	.	.	2b-\
.	[1A	.	[1cc
.	.	2B-\	.
=78	=78	=78	=78
1F]	2A/]	2c\	2cc\]
.	2B-\	2d\	4b-\
.	.	.	4a/
1E	1c	1e	1g
=79	=79	=79	=79
2D\	[0d	2A/	1f
2.BB-/	.	2.B-\	.
.	.	.	1b-
4C/	.	4A/	.
4D\	.	2G/	.
4E\	.	.	.
=80	=80	=80	=80
2F\	0d]	2F/	2a/
2G\	.	2B-\	2b-\
2D\	.	2F/	2a/
2G\	.	2B-\	2b-\
=81	=81	=81	=81
2E\	1c	2c\	2g/
2F\	.	2A/	2a/
2D\	1B-	2B-\	2f/
2E\	.	2G/	2g/
=82	=82	=82	=82
2C/	2c\	2A/	2e/
2D\	2.d\	1F	2.f/
1BB-	.	.	.
.	4c\	.	4e/
.	[2B-\	[2f\	2d/
=83	=83	=83	=83
1F	2B-\]	4f\]	1c
.	.	4e\	.
.	2A/	4c\	.
.	.	4d\	.
2G\	2B-\	2e\	2B-/
2F\	2A/	[2f\	[2cc\
=84	=84	=84	=84
1G	1B-	2f\]	4cc\]
.	.	.	4b-\
.	.	2e\	1b-
1F	1c	1f	.
.	.	.	2a/
=85	=85	=85	=85
0BB-l	0B-l	0fl	0b-l
==	==	==	==
*-	*-	*-	*-
!!!RDF**kern: l=long note in original notation
!!!RDF**kern: i=editorial accidental
!!!RDF**kern: V=start of tuplet marker
!!!RDF**kern: Z=end of tuplet marker
!!!ENC:	Jesse Rodin; Victoria Chang 2012/02/23
!!!END:	2012/02/23/
!!!EED:	Jesse Rodin
!!!EEV:	2012/06/25/
!!attribution-level@Jos: 4 (questionable)
!!!ONB:	Translated from MusicXML and edited on 2012/06/25/ by Craig Sapp
!!muse2ps: T^@{OPR}^u^@{ONM}. @{OTL} / @{ONM2}. @{OTL2}^C^@{COA}?\n@{SCT}^i2I150v85,85,85,150Q16c125
